!!!OTL: Von einem stolzen Dirnelein. / Fragment bei M. Franck, Fasc. quodl. 1611 No. 3:
!!!ARE: Europa, Mitteleuropa, Deutschland
!!!SCT: A0201B
!!!TXL: @@GMH
!!!YEM: Copyright 1995, estate of Helmut Schaffrath.
**kern	**text
!! Mixed meters:  6/4; 4/4; 6/8
*M4/4yy	*
*clefC1	*
*k[b-]	*
*F:	*
{4f	Jch
=1	=1
*M6/4	*
2f	wolt
4f	gern
4cc	ſin-
4cc	-gen
4a	und
=2	=2
*M4/4	*
*met(c|)	*
4b-	weiß
4g	nit
2a}	wie,
=3	=3
*M6/8	*
{4f	von
4f	mei-
4f	-nem
=4-	=4-
4cc	Bu-
4cc	-len
4a	der
=5	=5
*M4/4	*
*met(c|)	*
4b-	iſt
4g	nicht
4a}	hie,
{4a	er
=6	=6
4f	iſt
4f	in
4a	fer-
4a	-ne
=7	=7
2f	Lan-
!LO:N:vis=2	!
!LO:TX:a:t=P:2g in the score:problem	!
4g/}	-de.
==	==
!!!GTL: Liebeslieder
!!!AGN: Romanze, Ballade, Lied
!! Fragment bei M. Franck, Fasc. Quodl. 1611  No. 3.
!!!ONB: ESAC (Essen Associative Code) Database: ALTDEU
!!!AMT: irregular
!!!AIN: vox
!!!EED: Helmut Schaffrath
!!!EEV: 1.0
!!!URL-scan: https://rosdok.uni-rostock.de/mcrviewer/recordIdentifier/rosdok_ppn738218359/iview2/phys_0356.iview2?x=-495.6391625615763&y=2376.5392075269483&scale=0.4629418472063854&rotation=0&layout=singlePageLayout&logicalDiv=log_0009
!!!ENC: Anna Maria Matuszewska
!!!EEV: 2024/07/0
*-	*-
